src/raw/verification/icon_24.svg

<svg width="24" height="24" viewBox="0 0 24 24" fill="none" xmlns="http://www.w3.org/2000/svg">
<path d="M4.39254 16.2614C2.64803 13.1941 1.66074 9.71783 1.51646 6.15051C1.50127 5.77507 1.70918 5.42812 2.04153 5.25282L11.5335 0.246091C11.8254 0.0920859 12.1746 0.0920859 12.4665 0.246091L21.9585 5.25282C22.2908 5.42812 22.4987 5.77507 22.4835 6.15051C22.3393 9.71783 21.352 13.1941 19.6075 16.2614C17.8618 19.3307 15.4169 21.8869 12.4986 23.7001C12.1931 23.8899 11.8069 23.8899 11.5014 23.7001C8.58313 21.8869 6.13817 19.3307 4.39254 16.2614Z" fill="#0063FB"/>
<path d="M8.25 12.75L11.25 15L17.25 9" stroke="white" stroke-width="2" stroke-linecap="round" stroke-linejoin="round"/>
</svg>

<svg xmlns="http://www.w3.org/2000/svg" width="24" height="24" fill="none" viewBox="0 0 24 24"><path fill="#3F3F46" d="M4.393 16.261a22.292 22.292 0 0 1-2.877-10.11.974.974 0 0 1 .526-.898L11.534.246a1 1 0 0 1 .932 0l9.493 5.007c.332.175.54.522.524.898a22.29 22.29 0 0 1-2.875 10.11c-1.746 3.07-4.191 5.626-7.11 7.44a.944.944 0 0 1-.997 0c-2.918-1.814-5.363-4.37-7.108-7.44Z"/><path stroke="#fff" stroke-linecap="round" stroke-linejoin="round" stroke-width="2" d="m8.25 12.75 3 2.25 6-6"/></svg>
